!!!COM: Louise Reichardt
!!!CNT: Deutsch
!!!TXO: Deutsch
!!!OTL: Ida (aus Ariels Offenberungen)
!!!LYR: von Arnim
!!!OPR: 
!!!OPS: No opus information available
!!!ONM: No. 7
!!!ENC: Ben Fuhrman
!!!YOR: Louise Reichardt: Songs
!!!YOR: New York, Da Capo Press, 1981
!!!ODT: 1800 - 1826
!!NB: Only vocal melody encoded.
!!NB: First instance of melodic material only encoded.
!!created: 2/17/10 3:15PM
!!proofed and posted: 2/17/10 3:15PM
**kern	**silbe
*clef G2	*
*k[b-e-a-d-g-c-]	*
*M2/4	*
*MM[Schauerlich leise u.mit zunehmender Sta2rke]	*
=1	=1
{4e-	{Wenn
8e-	ich
8e-	ge-
=2	=2
4f	-stor-
4f	-ben
=3	=3
4g-	bin,
4r	.
=4	=4
4g-	leg
8g-	mich
8g-	aufs
=5	=5
4a-	Schiff-
4a-	-lein
=6	=6
4b-}	hin,}
4r	.
=7	=7
{4b-	{le-
8b-	-ge
8a-	viel
=8	8
4g-	Feu-
4f	-er
=9	=9
2en	drein,
=10	=10
4f	dass
8b-	ich
8dd-	ver-
=11	=11
4cc	-bren-
4en	-ne
=12	=12
4f}	rein.}
4r	.
=13	=13
2r	.
=14	=14
{4ccn	{Las-
8dd-	-se
8ee-	das
=15	=15
4.ee-	Schiff-
8a-	-lein,
=16	=16
(4a-	frey,
8gn)	|
8r	.
=17	=17
4b-	sin-
a-q	|
8gn	-ge
8f	dies
=18	=18
4.e-	Spru2ch-
8d-	-lein
=19	=19
d-q	-bey:
4c-}	|}
4r	.
=20	=20
{4ee-	{Heym-
4a-	-dal,
=21	=21
4ff	Heym-
8b-	-dal,
8b-	die
=22	=22
8b-	Lie-
4cc-	|
16b-	-be
16a-	|
=23	=23
(4a-	dein
8g-)	|
8g-	war
=24	=24
4a-	nicht
4a-	auf
=25	=25
a-q	Er-
b-q	|
4cc-	|
4b-	-den
=26	=26
4a-}	mein.}
4r	.
=27	=27
4r	.
8r	.
{8dd-	{Und
=28	=28
4.ee-	wo
8ee-	mein
=29	=29
8dd-	Schiff-
8ccn	|
8b-	-lein
16ccn	|
16a-	|
=30	=30
(4a-	steht,
8gn)	|
8r	.
=31	=31
4b-	der
a-q	mit
8gn	|
8f	zu
=32	=32
4.e-	Gra-
8d-	-be
=33	=33
d-q	geht,
4c-}	|}
8r	.
{8c-	{bey
=34	=34
8.cc-	dir
16cc-	o
8.b-	Heym-
16b-	-dal
=35	=35
8an	mein
8an	steht
8an	es
8an	am
=36	=36
4b-	har-
4dn	-ten
=37	=37
4e-}	Stein.}
4r	.
=38	=38
{8dn	{Hart
16f	war
16a-	dein
8.cc	kal-
16d-	-ter
=39	=39
fq	Sinn,
4e-	|
8r	.
8b-	um
=40	=40
8ff	ihn,
16ee-	ich
16ddn	|
8cc-	stor
16b-	|
16a-	-ben
=41	=41
a-q	-bin,
4g-}	|}
4r	.
=42	=42
{8cc-	nimm
16cc-	bald
16cc-	das
8.ee-	Nacht-
16dd-	-mahl
=43	=43
8cc-	fein
8cc-	dass
8b-	du
8an	kaast
=44	=44
4b-	ster-
4dn	-ben
=45	=45
4e-}	rein.}
8r	.
{8b-	{Weicht
=46	=46
8.b-	dir
16b-	dies
8.b-	Lied
16e-	den
=47	=47
(4e-	Sinn,
8dn)	|
8r	.
=48	=48
8b-	wis-
16b-	-se
16ff	du
8.ff	Flo-
16a-	-cken-
=49	=49
(4a-	-kinn,
8g-)}	|}
8r	.
=50	=50
{8cc-	{bren-
16cc-	-nen
16cc-	kann
8.b-	Lie-
16b-	-be
=51	=51
4an	nicht
[4b-	ho2r-
=52	=52
4b-]	|
16a-	-test
16g-	|
16f	sonst
16e-	|
=53	=53
(4e-	die-
g-q	|
8f)	|
8e-	-ses
=54	=54
4e-}	nicht.}
4r	.
==	==
*-	*-
